X: 40699
T: Torrent, The
R: reel
M: 4/4
K: Amajor
c2 (3dcB cFFG|A2 GF GE E2|c2 (3dcB cFFG|AGFE C2 C2|
c2 (3dcB cFFG|A2 GF GE E2|c2 (3dcB cFFG|AGFE C2 C2|
C2 FC GC A2|C2 FC ACBc|C2 FC GC A2|GAGF EDCB,|
C2 FC GC A2|C2 FC ACBc|cdcB c2 AB|1 cBAF EDCB,:|2 cBAG A2 A2||

